X:1
T:Llevemos al Señor
T:Misa - Ofertorio
T:Cuaresma
C:Carmelo Erdozáin
S:
M:6/8
L:1/8
Q:1/4=80
K:Em
%
    "Em"z3 z2B, | "Em"E2E E2D | E4 zG | "D"F3/2G/2F "Em"E3 |
w: 1.~Lle-ve-mos al Se-ñor el vi-no y~el pan,
w: 2.~Lle-ve-mos al Se-ñor pu-re-za y~a-mor,
w: 3.~Lle-ve-mos al Se-ñor tra-ba-jo~y do-lor,
    z3z2B, | "Em"E2E E2D | E4 zG | "D"F3/2G/2F "Em"E3 |
w: lle-ve-mos al al-tar la vi-ña,~el tri-gal.
w: lle-ve-mos al al-tar jus-ti-cia~her-man-dad.
w: lle-ve-mos al al-tar o-fren-das de paz.
    z3 "D"G2A | "G"B3 B2B | "D"A3 "G"B3/2A/2G | "D"F3/2E/2D "Em"E3 |
w: El Se-ñor nos da-rá, Él nos da-rá su~a-mis-tad.
    z3 "D"G2A | "G"B3 B2B | "D"A3 "G"B3/2A/2G | "D"F3/2E/2D "Em"E3 :|
w: El Se-ñor nos da-rá, Él nos da-rá su~a-mis-tad.